X: 10961
Q: "Not too fast."
M: 3/2
L: 1/8
K: G
e2 |\
dd3 G2B3 AG2 | A3B A2 c4 e2 |\
dd3 G3 B2 AB2 | G3f d2B3 cd2 |\
e3d (ef)g2 d2B2 | A3B A2 c4 e2 |\
d4 c2B3 cA2 | G2g2 d2 B4 d2 :|
|:\
c3d (ef)g2 d2B2 | A3B A2 c4 e2 |\
g3f e2d2 B2d2 | e2g2 d2 B4 d2 :|


